X:1
T:Monroesque
T:Monroesque
T:Nigel Gatherer
C:Nigel Gatherer
L:1/8
M:4/4
K:D
V:1 treble 
V:1
 E=F | ^FABA =cBA=F | ^FABA =cBA=F | ^FABA =cBAF | DFA=c- c4 | G2 G2 Bd d2 | =fedB dB=F^F | %7
 D2 D2 [E=c]2 [GB][FA]- | [FA]6 B=c | ^cefe gfe=c | ^cefe gfec | d2 d2 BAFD- | D6 || %13

